docs/public/resources/icons/github.svg

<svg width="16" height="17" viewBox="0 0 16 17" fill="none" xmlns="http://www.w3.org/2000/svg">
    <path d="M10.6663 15.6663V13.0863C10.6913 12.7684 10.6484 12.4488 10.5404 12.1488C10.4323 11.8488 10.2616 11.5752 10.0397 11.3463C12.133 11.113 14.333 10.3196 14.333 6.67963C14.3328 5.74885 13.9748 4.85377 13.333 4.17963C13.6369 3.3653 13.6154 2.4652 13.273 1.6663C13.273 1.6663 12.4863 1.43297 10.6663 2.65297C9.13835 2.23885 7.52767 2.23885 5.99967 2.65297C4.17967 1.43297 3.39301 1.6663 3.39301 1.6663C3.05059 2.4652 3.0291 3.3653 3.33301 4.17963C2.68643 4.85877 2.32802 5.76194 2.33301 6.69963C2.33301 10.313 4.53301 11.1063 6.62634 11.3663C6.40701 11.5929 6.23785 11.8632 6.12988 12.1596C6.02191 12.4559 5.97755 12.7717 5.99967 13.0863V15.6663M5.99967 13.6663C2.66634 14.6663 2.66634 11.9996 1.33301 11.6663L5.99967 13.6663Z"
          stroke="currentColor" stroke-width="1.5" stroke-linecap="round" stroke-linejoin="round"/>
</svg>

<svg xmlns="http://www.w3.org/2000/svg" width="16" height="17" fill="none" viewBox="0 0 16 17"><path stroke="currentColor" stroke-linecap="round" stroke-linejoin="round" stroke-width="1.5" d="M10.666 15.666v-2.58a2.25 2.25 0 0 0-.626-1.74c2.093-.233 4.293-1.026 4.293-4.666 0-.931-.358-1.826-1-2.5a3.38 3.38 0 0 0-.06-2.514s-.787-.233-2.607.987a8.9 8.9 0 0 0-4.666 0c-1.82-1.22-2.607-.987-2.607-.987a3.38 3.38 0 0 0-.06 2.514 3.63 3.63 0 0 0-1 2.52c0 3.613 2.2 4.406 4.293 4.666A2.25 2.25 0 0 0 6 13.086v2.58m0-2c-3.334 1-3.334-1.666-4.667-2z"/></svg>
